X: 350
T: Wink The Other Eye
B: canberra pickers and fiddlers
B: tunes
M:C|
L:1/8
Q: 1/4=100
K:G
V:1 
{A}B>d|g4 +slide+f3d|efed BG2(_B|=B)dBG E2G2|BdBG D2G2|
[B4g4]+slide+f3d|efed BG2(_B|=B)dBG ED3|1G4- GABd:|2G4-G2(3DEF||
G2A2B2d2|g2ed BG2(_B|=B)dBG E2G2|BdBG D2(3DEF|
G2A2B2d2|g2ed BG2(_B|=B)dBG ED3|1G4-G2(3DEF:|2 G4-GABd||
% abcbook-tune_id 67ab6080e0ab23858ef03d54
% abcbook-tune_composer_id 
% abcbook-link-0 https://www.youtube.com/watch?v=G44tIMLa1Mg
% abcbook-link-title-0 &quot;Wink the Other Eye&quot; by Clyde Davenport
% abcbook-boost 0
% abcbook-difficulty 0
% abcbook-tags old time tunes
% abcbook-tablature 
% abcbook-transpose 
% abcbook-tuning GDAE
% abcbook-lastupdated 1739284950632
% abcbook-src-url 
% abcbook-soundfonts 
% abcbook-repeats 1


